!!!OTL: Niujiexin
!!!ARE: Asia, China,ÿJiangxi Gaoan
!! IV, 212
!!!SCT: C1795
!!!YEM: Copyright 1995, estate of Helmut Schaffrath.
**kern
*ICvox
*Ivox
*M2/4
*k[]
*C:
{8dd
8ee
4g
=1
4a
8a
8cc
=2
8dd
8ee
4g
=3
2a}
=4
{4dd
8dd
8ee
=5
8dd
8ee
8g
8a
=6
4cc
8cc
8a
=7
2g}
=8
{8cc
4cc
8cc
=9
8a
8cc
8a
8g
=10
8e
8g
8a
8cc
=11
8g
4.g}
=12
{8dd
4dd
8ee
=13
8dd
8ee
8g
8a
=14
4cc
8dd
8a
=15
2g}
=16
{4.e
8g
=17
8cc
8r
8cc
8r
=18
8.e
16g
8a
8e
=19
2g}
=20
{8dd
4dd
8ee
=21
8dd
8ee
8g
8a
=22
4cc
8dd
8a
=23
8g
8a
[4g
=24
2g]}
==
!!!AGN: Xiaodiao
!!!AMT: simple duple
!!!AIN: vox
!!!EED: Helmut Schaffrath
!!!EEV: 1.0
*-
!!!ONB: Tied note syntax fixed by Craig Sapp, 2004/05/03/
